;FLAVOR:Marlin
;TIME:4571
;Filament used: 3.98913m
;Layer height: 0.2
;MINX:69.75
;MINY:69.75
;MINZ:0.2
;MAXX:150.25
;MAXY:150.25
;MAXZ:14.8
;TARGET_MACHINE.NAME:Creality Ender-3 V3 SE
;Generated with Cura_SteamEngine 5.6.0
M140 S60
M105
M190 S60
M104 S210
M105
M109 S210
M82 ;absolute extrusion mode
M220 S100 ;Reset Feedrate
M221 S100 ;Reset Flowrate

G28 ;Home

M420 S1; Enable mesh leveling

G92 E0 ;Reset Extruder
G1 Z2.0 F3000 ;Move Z Axis up
G1 X10.1 Y20 Z0.28 F5000.0 ;Move to start position
M109 S[material_print_temperature_layer_0]
G1 X10.1 Y145.0 Z0.28 F1500.0 E15 ;Draw the first line
G1 X10.4 Y145.0 Z0.28 F5000.0 ;Move to side a little
G1 X10.4 Y20 Z0.28 F1500.0 E30 ;Draw the second line
G92 E0  ;Reset Extruder
G1 E-1.0000 F1800 ;Retract a bit
G1 Z2.0 F3000 ;Move Z Axis up
G1 E0.0000 F1800 

G92 E0
G92 E0
G1 F2400 E-3
;LAYER_COUNT:74
;LAYER:0
M107
G0 F9000 X73.206 Y72.763 Z0.2
;TYPE:SKIRT
G1 F2400 E0
G1 F1800 X73.942 Y72.126 E0.03237
G1 X74.674 Y71.596 E0.06243
G1 X75.571 Y71.061 E0.09717
G1 X76.449 Y70.64 E0.12956
G1 X77.362 Y70.298 E0.16198
G1 X78.299 Y70.039 E0.19432
G1 X79.266 Y69.861 E0.22702
G1 X80.405 Y69.765 E0.26504
G1 X81.062 Y69.75 E0.2869
G1 X138.554 Y69.75 E2.19909
G1 X139.434 Y69.763 E2.22836
G1 X140.406 Y69.822 E2.26075
G1 X141.369 Y69.968 E2.29314
G1 X142.316 Y70.199 E2.32556
G1 X143.204 Y70.499 E2.35674
G1 X144.096 Y70.889 E2.38912
G1 X144.979 Y71.376 E2.42266
G1 X145.73 Y71.878 E2.4527
G1 X146.545 Y72.536 E2.48754
G1 X147.243 Y73.214 E2.51991
G1 X147.879 Y73.951 E2.55228
G1 X148.449 Y74.741 E2.58469
G1 X148.911 Y75.517 E2.61472
G1 X149.365 Y76.459 E2.6495
G1 X149.694 Y77.337 E2.68069
G1 X149.963 Y78.309 E2.71423
G1 X150.14 Y79.275 E2.7469
G1 X150.235 Y80.405 E2.78461
G1 X150.25 Y81.08 E2.80707
G1 X150.249 Y138.65 E4.72186
G1 X150.238 Y139.413 E4.74724
G1 X150.181 Y140.386 E4.77965
G1 X150.036 Y141.349 E4.81204
G1 X149.807 Y142.295 E4.84442
G1 X149.496 Y143.219 E4.87684
G1 X149.104 Y144.11 E4.90922
G1 X148.636 Y144.962 E4.94155
G1 X148.114 Y145.743 E4.97279
G1 X147.481 Y146.528 E5.00633
G1 X146.856 Y147.179 E5.03635
G1 X146.067 Y147.867 E5.07117
G1 X145.307 Y148.417 E5.10237
G1 X144.44 Y148.934 E5.13595
G1 X143.562 Y149.356 E5.16835
G1 X142.651 Y149.698 E5.20071
G1 X141.712 Y149.959 E5.23313
G1 X140.746 Y150.137 E5.2658
G1 X139.595 Y150.235 E5.30422
G1 X138.92 Y150.25 E5.32667
G1 X81.314 Y150.249 E7.24266
G1 X80.581 Y150.238 E7.26704
G1 X79.609 Y150.181 E7.29942
G1 X78.646 Y150.035 E7.33182
G1 X77.7 Y149.806 E7.36419
G1 X76.776 Y149.494 E7.39663
G1 X75.886 Y149.102 E7.42897
G1 X75.063 Y148.651 E7.46019
G1 X74.224 Y148.09 E7.49376
G1 X73.52 Y147.524 E7.5238
G1 X72.767 Y146.799 E7.55857
G1 X72.13 Y146.063 E7.59094
G1 X71.6 Y145.332 E7.62097
G1 X71.064 Y144.435 E7.65573
G1 X70.642 Y143.557 E7.68813
G1 X70.3 Y142.645 E7.72052
G1 X70.04 Y141.707 E7.7529
G1 X69.862 Y140.738 E7.78567
G1 X69.764 Y139.559 E7.82502
G1 X69.75 Y138.908 E7.84667
G1 X69.751 Y81.275 E9.76355
G1 X69.762 Y80.575 E9.78684
G1 X69.82 Y79.602 E9.81926
G1 X69.966 Y78.639 E9.85165
G1 X70.196 Y77.693 E9.88404
G1 X70.509 Y76.77 E9.91645
G1 X70.901 Y75.88 E9.9488
G1 X71.371 Y75.027 E9.98119
G1 X71.914 Y74.219 E10.01357
G1 X72.481 Y73.515 E10.04363
G1 X73.206 Y72.763 E10.07838
G0 F9000 X73.468 Y73.065
G1 F1800 X74.177 Y72.45 E10.10959
G1 X74.909 Y71.92 E10.13965
G1 X75.745 Y71.421 E10.17203
G1 X76.59 Y71.014 E10.20323
G1 X77.469 Y70.683 E10.23447
G1 X78.372 Y70.432 E10.26564
G1 X79.3 Y70.26 E10.29703
G1 X80.439 Y70.164 E10.33505
G1 X81.071 Y70.15 E10.35607
G1 X138.548 Y70.15 E12.26777
G1 X139.41 Y70.162 E12.29644
G1 X140.347 Y70.218 E12.32766
G1 X141.275 Y70.357 E12.35887
G1 X142.188 Y70.578 E12.39011
G1 X143.044 Y70.866 E12.42015
G1 X143.936 Y71.256 E12.45253
G1 X144.757 Y71.709 E12.48372
G1 X145.508 Y72.211 E12.51377
G1 X146.267 Y72.823 E12.54619
G1 X146.941 Y73.476 E12.57741
G1 X147.555 Y74.185 E12.6086
G1 X148.105 Y74.946 E12.63983
G1 X148.567 Y75.722 E12.66987
G1 X148.99 Y76.599 E12.70225
G1 X149.319 Y77.477 E12.73344
G1 X149.57 Y78.382 E12.76468
G1 X149.741 Y79.309 E12.79603
G1 X149.836 Y80.439 E12.83374
G1 X149.85 Y81.08 E12.85507
G1 X149.849 Y138.645 E14.76969
G1 X149.839 Y139.39 E14.79447
G1 X149.785 Y140.327 E14.82569
G1 X149.647 Y141.256 E14.85692
G1 X149.428 Y142.168 E14.88812
G1 X149.13 Y143.058 E14.91934
G1 X148.753 Y143.918 E14.95057
G1 X148.303 Y144.74 E14.98174
G1 X147.781 Y145.521 E15.01298
G1 X147.192 Y146.251 E15.04418
G1 X146.567 Y146.902 E15.07419
G1 X145.832 Y147.543 E15.10663
G1 X145.072 Y148.093 E15.13783
G1 X144.266 Y148.574 E15.16905
G1 X143.421 Y148.982 E15.20026
G1 X142.543 Y149.313 E15.23147
G1 X141.639 Y149.566 E15.26269
G1 X140.712 Y149.738 E15.29405
G1 X139.561 Y149.836 E15.33247
G1 X138.92 Y149.85 E15.3538
G1 X81.32 Y149.849 E17.26958
G1 X80.604 Y149.839 E17.2934
G1 X79.668 Y149.785 E17.32458
G1 X78.739 Y149.646 E17.35582
G1 X77.827 Y149.427 E17.38702
G1 X76.937 Y149.128 E17.41825
G1 X76.078 Y148.751 E17.44945
G1 X75.255 Y148.3 E17.48066
G1 X74.475 Y147.778 E17.51188
G1 X73.771 Y147.212 E17.54192
G1 X73.069 Y146.537 E17.57431
G1 X72.454 Y145.828 E17.60553
G1 X71.924 Y145.097 E17.63556
G1 X71.424 Y144.261 E17.66796
G1 X71.016 Y143.416 E17.69917
G1 X70.685 Y142.538 E17.73038
G1 X70.433 Y141.634 E17.76159
G1 X70.261 Y140.705 E17.79302
G1 X70.163 Y139.526 E17.83236
G1 X70.15 Y138.908 E17.85292
G1 X70.151 Y81.281 E19.76961
G1 X70.161 Y80.598 E19.79232
G1 X70.216 Y79.661 E19.82354
G1 X70.355 Y78.733 E19.85475
G1 X70.575 Y77.821 E19.88596
G1 X70.875 Y76.931 E19.91719
G1 X71.252 Y76.072 E19.94839
G1 X71.703 Y75.25 E19.97958
G1 X72.226 Y74.47 E20.01081
G1 X72.793 Y73.766 E20.04088
G1 X73.468 Y73.065 E20.07325
G0 F9000 X73.731 Y73.367
G1 F1800 X74.412 Y72.774 E20.10328
G1 X75.144 Y72.244 E20.13334
G1 X75.919 Y71.781 E20.16336
G1 X76.732 Y71.388 E20.1934
G1 X77.577 Y71.068 E20.22345
G1 X78.446 Y70.825 E20.25346
G1 X79.334 Y70.659 E20.28351
G1 X80.473 Y70.563 E20.32153
G1 X81.08 Y70.55 E20.34172
G1 X138.543 Y70.55 E22.25295
G1 X139.387 Y70.561 E22.28102
G1 X140.289 Y70.614 E22.31107
G1 X141.182 Y70.746 E22.3411
G1 X142.06 Y70.957 E22.37113
G1 X142.916 Y71.245 E22.40117
G1 X143.743 Y71.607 E22.4312
G1 X144.535 Y72.042 E22.46125
G1 X145.286 Y72.544 E22.4913
G1 X145.989 Y73.111 E22.52133
G1 X146.639 Y73.738 E22.55137
G1 X147.231 Y74.42 E22.58141
G1 X147.761 Y75.151 E22.61144
G1 X148.223 Y75.927 E22.64148
G1 X148.616 Y76.74 E22.67151
G1 X148.934 Y77.585 E22.70154
G1 X149.177 Y78.455 E22.73159
G1 X149.342 Y79.343 E22.76163
G1 X149.437 Y80.473 E22.79934
G1 X149.45 Y81.08 E22.81954
G1 X149.449 Y138.64 E24.73399
G1 X149.44 Y139.367 E24.75817
G1 X149.389 Y140.269 E24.78822
G1 X149.258 Y141.163 E24.81827
G1 X149.049 Y142.041 E24.84829
G1 X148.763 Y142.898 E24.87834
G1 X148.402 Y143.726 E24.90838
G1 X147.97 Y144.518 E24.93839
G1 X147.469 Y145.27 E24.96844
G1 X146.903 Y145.974 E24.99849
G1 X146.278 Y146.625 E25.0285
G1 X145.597 Y147.219 E25.05856
G1 X144.866 Y147.75 E25.08861
G1 X144.092 Y148.214 E25.11862
G1 X143.279 Y148.608 E25.14867
G1 X142.435 Y148.928 E25.17869
G1 X141.565 Y149.173 E25.20876
G1 X140.678 Y149.339 E25.23877
G1 X139.527 Y149.437 E25.27719
G1 X138.92 Y149.45 E25.29738
G1 X81.325 Y149.449 E27.213
G1 X80.627 Y149.44 E27.23622
G1 X79.726 Y149.389 E27.26624
G1 X78.832 Y149.257 E27.29629
G1 X77.954 Y149.048 E27.32631
G1 X77.097 Y148.761 E27.35637
G1 X76.27 Y148.4 E27.38638
G1 X75.477 Y147.967 E27.41643
G1 X74.726 Y147.466 E27.44646
G1 X74.022 Y146.9 E27.4765
G1 X73.371 Y146.274 E27.50654
G1 X72.778 Y145.593 E27.53658
G1 X72.248 Y144.862 E27.56661
G1 X71.784 Y144.087 E27.59665
G1 X71.39 Y143.274 E27.6267
G1 X71.07 Y142.43 E27.65672
G1 X70.826 Y141.56 E27.68677
G1 X70.66 Y140.672 E27.71682
G1 X70.563 Y139.517 E27.75537
G1 X70.55 Y138.908 E27.77563
G1 X70.551 Y81.286 E29.69215
G1 X70.56 Y80.621 E29.71427
G1 X70.612 Y79.719 E29.74432
G1 X70.744 Y78.826 E29.77434
G1 X70.954 Y77.948 E29.80437
G1 X71.241 Y77.091 E29.83443
G1 X71.603 Y76.264 E29.86445
G1 X72.036 Y75.472 E29.89448
G1 X72.538 Y74.721 E29.92452
G1 X73.105 Y74.017 E29.95459
G1 X73.731 Y73.367 E29.9846
G1 F2400 E26.9846
;MESH:AirQualityStation_Enclosure_Bottom.stl
G0 F9000 X80.085 Y114.344
G0 X88.341 Y119.268
;TYPE:WALL-INNER
G1 F2400 E29.9846
G1 F1800 X88.656 Y119.164 E29.99563
G1 X88.897 Y119.006 E30.00522
G1 X89.2 Y118.762 E30.01816
G1 X89.474 Y118.347 E30.0347
G1 X89.665 Y117.927 E30.05004
G1 X89.748 Y117.476 E30.0653
G1 X89.78 Y116.903 E30.08438
G1 X89.746 Y116.338 E30.10321
G1 X89.644 Y115.801 E30.12139
G1 X89.465 Y115.458 E30.13426
G1 X89.206 Y115.062 E30.15
G1 X88.806 Y114.729 E30.16731
G1 X88.521 Y114.586 E30.17791
G1 X88.372 Y114.555 E30.18297
G1 X88.369 Y114.666 E30.18667
G1 X88.086 Y115.516 E30.21646
G1 X87.838 Y115.753 E30.22787
G1 X87.616 Y115.823 E30.23562
G1 X87.378 Y115.801 E30.24357
G1 X86.933 Y115.652 E30.25917
G1 X86.568 Y115.498 E30.27235
G1 X86.268 Y115.325 E30.28387
G1 X86.1 Y115.589 E30.29428
G1 X85.962 Y115.911 E30.30593
G1 X85.902 Y116.293 E30.31879
G1 X85.86 Y116.918 E30.33962
G1 X85.874 Y117.253 E30.35078
G1 X85.916 Y117.601 E30.36243
G1 X86.007 Y117.948 E30.37437
G1 X86.113 Y118.247 E30.38492
G1 X86.244 Y118.482 E30.39387
G1 X86.398 Y118.701 E30.40277
G1 X86.582 Y118.878 E30.41126
G1 X86.8 Y119.046 E30.42042
G1 X87.034 Y119.166 E30.42916
G1 X87.279 Y119.259 E30.43788
G1 X87.53 Y119.306 E30.44637
G1 X87.8 Y119.327 E30.45538
G1 X88.341 Y119.268 E30.47348
G0 F9000 X88.426 Y119.661
;TYPE:WALL-OUTER
G1 F1800 X88.832 Y119.528 E30.48769
G1 X89.133 Y119.33 E30.49967
G1 X89.5 Y119.035 E30.51533
G1 X89.819 Y118.551 E30.53461
G1 X89.949 Y118.305 E30.54387
G1 X90.048 Y118.045 E30.55312
G1 X90.111 Y117.781 E30.56215
G1 X90.147 Y117.514 E30.57111
G1 X90.181 Y116.902 E30.5915
G1 X90.144 Y116.298 E30.61162
G1 X90.108 Y116.032 E30.62055
G1 X90.044 Y115.77 E30.62952
G1 X89.947 Y115.515 E30.63859
G1 X89.81 Y115.255 E30.64837
G1 X89.508 Y114.793 E30.66673
G1 X89.027 Y114.392 E30.68756
G1 X88.653 Y114.204 E30.70148
G1 X88.291 Y114.13 E30.71377
G1 X87.718 Y114.067 E30.73294
G1 X87.327 Y114.125 E30.74609
G1 X87.608 Y114.236 E30.75614
G1 X87.848 Y114.309 E30.76448
G1 X88.008 Y114.48 E30.77227
G1 X87.728 Y115.317 E30.80162
G1 X87.572 Y115.442 E30.80827
G1 X87.089 Y115.283 E30.82519
G1 X86.703 Y115.119 E30.83913
G1 X86.164 Y114.796 E30.86003
G1 X85.895 Y115.154 E30.87493
G1 X85.744 Y115.405 E30.88467
G1 X85.627 Y115.675 E30.89446
G1 X85.55 Y115.954 E30.90408
G1 X85.504 Y116.248 E30.91398
G1 X85.459 Y116.913 E30.93615
G1 X85.475 Y117.286 E30.94857
G1 X85.522 Y117.677 E30.96167
G1 X85.625 Y118.066 E30.97505
G1 X85.747 Y118.412 E30.98725
G1 X85.905 Y118.695 E30.99803
G1 X86.093 Y118.962 E31.00889
G1 X86.32 Y119.181 E31.01938
G1 X86.585 Y119.386 E31.03053
G1 X86.871 Y119.532 E31.04121
G1 X87.17 Y119.646 E31.05185
G1 X87.478 Y119.703 E31.06227
G1 X87.806 Y119.729 E31.07321
G1 X88.426 Y119.661 E31.09396
G0 F9000 X88.552 Y118.822
;TYPE:SKIN
G1 F1800 X88.169 Y118.923 E31.10713
G1 X87.802 Y118.964 E31.11941
G1 X87.378 Y118.909 E31.13363
G1 X86.991 Y118.737 E31.14772
G1 X86.677 Y118.468 E31.16147
G1 X86.4 Y118.026 E31.17882
G1 X86.273 Y117.533 E31.19575
G1 X86.233 Y117.21 E31.20658
G1 X86.221 Y116.927 E31.216
G1 X86.26 Y116.33 E31.2359
G1 X86.348 Y115.931 E31.24949
G1 X86.403 Y115.814 E31.25379
G1 X86.824 Y115.997 E31.26906
G1 X87.271 Y116.145 E31.28472
G1 X87.659 Y116.184 E31.29769
G1 X88.01 Y116.069 E31.30997
G1 X88.188 Y115.942 E31.31725
G1 X88.403 Y115.697 E31.32809
G1 X88.623 Y115.046 E31.35094
G1 X88.936 Y115.308 E31.36452
G1 X89.149 Y115.633 E31.37744
G1 X89.316 Y115.999 E31.39082
G1 X89.386 Y116.37 E31.40338
G1 X89.417 Y116.906 E31.42124
G1 X89.387 Y117.445 E31.43919
G1 X89.319 Y117.82 E31.45187
G1 X89.165 Y118.16 E31.46428
G1 X88.93 Y118.517 E31.4785
G1 X88.552 Y118.822 E31.49465
G0 F9000 X88.685 Y119.025
G0 X87.797 Y119.166
G0 X87.324 Y119.104
G0 X86.887 Y118.909
G0 X86.521 Y118.596
G0 X86.052 Y117.728
G0 X86.499 Y117.612
G1 F1800 X87.625 Y118.738 E31.54762
G0 F9000 X88.168 Y118.715
G1 F1800 X86.422 Y116.969 E31.62974
G0 F9000 X86.453 Y116.435
G1 F1800 X88.568 Y118.549 E31.7292
G0 F9000 X88.852 Y118.268
G1 F1800 X86.774 Y116.19 E31.82695
G0 F9000 X87.519 Y116.369
G1 F1800 X89.059 Y117.909 E31.89938
G0 F9000 X89.18 Y117.464
G1 F1800 X87.997 Y116.281 E31.95503
G0 F9000 X88.347 Y116.065
G1 F1800 X89.214 Y116.933 E31.99583
G0 F9000 X89.174 Y116.327
G1 F1800 X88.595 Y115.748 E32.02307
G1 F2400 E29.02307
G0 F9000 X88.18 Y115.554
G0 X88.516 Y114.777
G0 X88.925 Y115.038
G0 X89.892 Y116.076
G0 X100.564 Y116.642
G0 X101.243 Y117.243
G0 X101.242 Y117.796
;TYPE:WALL-INNER
G1 F2400 E32.02307
G1 F1500 X101.588 Y116.872 E32.06245
G1 X100.895 Y116.872 E32.0901
G1 X101.242 Y117.796 E32.1295
G0 F9000 X101.243 Y117.243
G0 X101.246 Y118.394
G0 X101.255 Y119.128
;TYPE:WALL-OUTER
G1 F1800 X101.498 Y118.368 E32.15604
G1 X102.224 Y116.432 E32.22481
G1 X100.259 Y116.432 E32.29016
G1 X101.085 Y118.626 E32.36814
G1 X101.255 Y119.128 E32.38576
G1 F2400 E29.38576
G0 F9000 X101.246 Y118.394
G0 X101.92 Y116.642
G0 X124.03 Y116.802
G0 X124.493 Y117.184
;TYPE:WALL-INNER
G1 F2400 E32.38576
G1 F1972.6 X124.647 Y117.285 E32.39135
G1 F1940.7 X125.037 Y117.357 E32.40359
G1 F1930.3 X125.39 Y117.298 E32.41469
G1 F1951.2 X125.677 Y117.111 E32.4252
G1 X125.781 Y116.975 E32.43045
G1 F1961.9 X124.302 Y116.974 E32.47558
G1 F1972.6 X124.493 Y117.184 E32.4842
G0 F9000 X124.738 Y117.711
;TYPE:WALL-OUTER
G1 F1800 X125.033 Y117.748 E32.49409
G1 X125.286 Y117.721 E32.50255
G1 X125.618 Y117.636 E32.51395
G1 X125.951 Y117.385 E32.52782
G1 X126.12 Y117.163 E32.5371
G1 X126.253 Y116.927 E32.54611
G1 X126.348 Y116.591 E32.55772
G1 X123.768 Y116.591 E32.64353
G1 X123.829 Y116.872 E32.6531
G1 X124.045 Y117.288 E32.66869
G1 X124.256 Y117.486 E32.67831
G1 X124.484 Y117.635 E32.68737
G1 X124.738 Y117.711 E32.69619
G1 F2400 E29.69619
G0 F9000 X124.8 Y117.42
G0 X124.568 Y116.81
G0 X124.568 Y115.213
G0 X124.568 Y114.791
G0 X124.227 Y114.977
;TYPE:WALL-INNER
G1 F2400 E32.69619
G1 F1414.5 X125.801 Y114.978 E32.76281
G1 F1409 X125.628 Y114.71 E32.77636
G1 X125.341 Y114.512 E32.79117
G1 F1398.1 X124.984 Y114.451 E32.80668
G1 F1400.8 X124.727 Y114.48 E32.81774
G1 F1417.3 X124.503 Y114.591 E32.8283
G1 X124.318 Y114.801 E32.84012
G1 X124.227 Y114.977 E32.84849
G1 F2400 E29.84849
G0 F9000 X124.568 Y114.791
G0 X123.861 Y115.222
G0 X122.972 Y115.233
G0 X117.372 Y120.937
G1 F2400 E32.84849
G1 F1800 X117.083 Y120.766 E32.85966
G1 X116.906 Y120.551 E32.86892
G1 X116.846 Y120.323 E32.87676
G1 X116.846 Y119.185 E32.91461
G1 X116.391 Y119.185 E32.92974
G1 X116.181 Y119.082 E32.93752
G1 X116.08 Y118.908 E32.94422
G1 X115.979 Y119.082 E32.95091
G1 X115.676 Y119.184 E32.96154
G1 X114.665 Y119.183 E32.99517
G1 X114.357 Y119.064 E33.00615
G1 X114.218 Y118.917 E33.01288
G1 X114.12 Y118.638 E33.02271
G1 X114.119 Y115.18 E33.13773
G1 X114.074 Y114.749 E33.15214
G1 X113.934 Y114.521 E33.16104
G1 X113.792 Y114.453 E33.16628
G1 X113.601 Y114.428 E33.17268
G1 X113.354 Y114.461 E33.18097
G1 X113.134 Y114.554 E33.18891
G1 X112.973 Y114.684 E33.1958
G1 X112.863 Y114.86 E33.2027
G1 X112.763 Y115.289 E33.21735
G1 X112.756 Y118.638 E33.32874
G1 X112.658 Y118.917 E33.33858
G1 X112.519 Y119.064 E33.3453
G1 X112.281 Y119.185 E33.35418
G1 X111.153 Y119.18 E33.3917
G1 X110.973 Y119.125 E33.39796
G1 X110.817 Y119.016 E33.40429
G1 F1387.3 X110.519 Y118.647 E33.42476
G1 X110.222 Y119.016 E33.4452
G1 F1800 X110.066 Y119.125 E33.45153
G1 X109.845 Y119.184 E33.45914
G1 X108.852 Y119.185 E33.49217
G1 X108.633 Y119.073 E33.50035
G1 X108.271 Y119.244 E33.51366
G1 X107.808 Y119.311 E33.52922
