;FLAVOR:Marlin
;TIME:4140
;Filament used: 3.67073m
;Layer height: 0.2
;MINX:69.7
;MINY:69.75
;MINZ:0.2
;MAXX:150.2
;MAXY:150.25
;MAXZ:12.8
;TARGET_MACHINE.NAME:Creality Ender-3 V3 SE
;Generated with Cura_SteamEngine 5.6.0
M140 S60
M105
M190 S60
M104 S210
M105
M109 S210
M82 ;absolute extrusion mode
M220 S100 ;Reset Feedrate
M221 S100 ;Reset Flowrate

G28 ;Home

M420 S1; Enable mesh leveling

G92 E0 ;Reset Extruder
G1 Z2.0 F3000 ;Move Z Axis up
G1 X10.1 Y20 Z0.28 F5000.0 ;Move to start position
M109 S[material_print_temperature_layer_0]
G1 X10.1 Y145.0 Z0.28 F1500.0 E15 ;Draw the first line
G1 X10.4 Y145.0 Z0.28 F5000.0 ;Move to side a little
G1 X10.4 Y20 Z0.28 F1500.0 E30 ;Draw the second line
G92 E0  ;Reset Extruder
G1 E-1.0000 F1800 ;Retract a bit
G1 Z2.0 F3000 ;Move Z Axis up
G1 E0.0000 F1800 

G92 E0
G92 E0
G1 F2400 E-3
;LAYER_COUNT:64
;LAYER:0
M107
G0 F9000 X73.156 Y72.763 Z0.2
;TYPE:SKIRT
G1 F2400 E0
G1 F1800 X73.892 Y72.126 E0.03237
G1 X74.624 Y71.596 E0.06243
G1 X75.521 Y71.061 E0.09717
G1 X76.399 Y70.64 E0.12956
G1 X77.312 Y70.298 E0.16198
G1 X78.249 Y70.039 E0.19432
G1 X79.216 Y69.861 E0.22702
G1 X80.355 Y69.765 E0.26504
G1 X81.012 Y69.75 E0.2869
G1 X138.504 Y69.75 E2.19909
G1 X139.384 Y69.763 E2.22836
G1 X140.356 Y69.822 E2.26075
G1 X141.319 Y69.968 E2.29314
G1 X142.266 Y70.199 E2.32556
G1 X143.154 Y70.499 E2.35674
G1 X144.046 Y70.889 E2.38912
G1 X144.929 Y71.376 E2.42266
G1 X145.68 Y71.878 E2.4527
G1 X146.495 Y72.536 E2.48754
G1 X147.193 Y73.214 E2.51991
G1 X147.829 Y73.951 E2.55228
G1 X148.399 Y74.741 E2.58469
G1 X148.861 Y75.517 E2.61472
G1 X149.315 Y76.459 E2.6495
G1 X149.644 Y77.337 E2.68069
G1 X149.913 Y78.309 E2.71423
G1 X150.09 Y79.275 E2.7469
G1 X150.185 Y80.405 E2.78461
G1 X150.2 Y81.08 E2.80707
G1 X150.199 Y138.65 E4.72186
G1 X150.188 Y139.413 E4.74724
G1 X150.131 Y140.386 E4.77965
G1 X149.986 Y141.349 E4.81204
G1 X149.757 Y142.295 E4.84442
G1 X149.446 Y143.219 E4.87684
G1 X149.054 Y144.11 E4.90922
G1 X148.586 Y144.962 E4.94155
G1 X148.064 Y145.743 E4.97279
G1 X147.431 Y146.528 E5.00633
G1 X146.806 Y147.179 E5.03635
G1 X146.017 Y147.867 E5.07117
G1 X145.257 Y148.417 E5.10237
G1 X144.39 Y148.934 E5.13595
G1 X143.512 Y149.356 E5.16835
G1 X142.601 Y149.698 E5.20071
G1 X141.662 Y149.959 E5.23313
G1 X140.696 Y150.137 E5.2658
G1 X139.545 Y150.235 E5.30422
G1 X138.87 Y150.25 E5.32667
G1 X81.264 Y150.249 E7.24266
G1 X80.531 Y150.238 E7.26704
G1 X79.559 Y150.181 E7.29942
G1 X78.596 Y150.035 E7.33182
G1 X77.65 Y149.806 E7.36419
G1 X76.726 Y149.494 E7.39663
G1 X75.836 Y149.102 E7.42897
G1 X75.013 Y148.651 E7.46019
G1 X74.174 Y148.09 E7.49376
G1 X73.47 Y147.524 E7.5238
G1 X72.717 Y146.799 E7.55857
G1 X72.08 Y146.063 E7.59094
G1 X71.55 Y145.332 E7.62097
G1 X71.014 Y144.435 E7.65573
G1 X70.592 Y143.557 E7.68813
G1 X70.25 Y142.645 E7.72052
G1 X69.99 Y141.707 E7.7529
G1 X69.812 Y140.738 E7.78567
G1 X69.714 Y139.559 E7.82502
G1 X69.7 Y138.908 E7.84667
G1 X69.701 Y81.275 E9.76355
G1 X69.712 Y80.575 E9.78684
G1 X69.77 Y79.602 E9.81926
G1 X69.916 Y78.639 E9.85165
G1 X70.146 Y77.693 E9.88404
G1 X70.459 Y76.77 E9.91645
G1 X70.851 Y75.88 E9.9488
G1 X71.321 Y75.027 E9.98119
G1 X71.864 Y74.219 E10.01357
G1 X72.431 Y73.515 E10.04363
G1 X73.156 Y72.763 E10.07838
G0 F9000 X73.418 Y73.065
G1 F1800 X74.127 Y72.45 E10.10959
G1 X74.859 Y71.92 E10.13965
G1 X75.695 Y71.421 E10.17203
G1 X76.54 Y71.014 E10.20323
G1 X77.419 Y70.683 E10.23447
G1 X78.322 Y70.432 E10.26564
G1 X79.25 Y70.26 E10.29703
G1 X80.389 Y70.164 E10.33505
G1 X81.021 Y70.15 E10.35607
G1 X138.498 Y70.15 E12.26777
G1 X139.36 Y70.162 E12.29644
G1 X140.297 Y70.218 E12.32766
G1 X141.225 Y70.357 E12.35887
G1 X142.138 Y70.578 E12.39011
G1 X142.994 Y70.866 E12.42015
G1 X143.886 Y71.256 E12.45253
G1 X144.707 Y71.709 E12.48372
G1 X145.458 Y72.211 E12.51377
G1 X146.217 Y72.823 E12.54619
G1 X146.891 Y73.476 E12.57741
G1 X147.505 Y74.185 E12.6086
G1 X148.055 Y74.946 E12.63983
G1 X148.517 Y75.722 E12.66987
G1 X148.94 Y76.599 E12.70225
G1 X149.269 Y77.477 E12.73344
G1 X149.52 Y78.382 E12.76468
G1 X149.691 Y79.309 E12.79603
G1 X149.786 Y80.439 E12.83374
G1 X149.8 Y81.08 E12.85507
G1 X149.799 Y138.645 E14.76969
G1 X149.789 Y139.39 E14.79447
G1 X149.735 Y140.327 E14.82569
G1 X149.597 Y141.256 E14.85692
G1 X149.378 Y142.168 E14.88812
G1 X149.08 Y143.058 E14.91934
G1 X148.703 Y143.918 E14.95057
G1 X148.253 Y144.74 E14.98174
G1 X147.731 Y145.521 E15.01298
G1 X147.142 Y146.251 E15.04418
G1 X146.517 Y146.902 E15.07419
G1 X145.782 Y147.543 E15.10663
G1 X145.022 Y148.093 E15.13783
G1 X144.216 Y148.574 E15.16905
G1 X143.371 Y148.982 E15.20026
G1 X142.493 Y149.313 E15.23147
G1 X141.589 Y149.566 E15.26269
G1 X140.662 Y149.738 E15.29405
G1 X139.511 Y149.836 E15.33247
G1 X138.87 Y149.85 E15.3538
G1 X81.27 Y149.849 E17.26958
G1 X80.554 Y149.839 E17.2934
G1 X79.618 Y149.785 E17.32458
G1 X78.689 Y149.646 E17.35582
G1 X77.777 Y149.427 E17.38702
G1 X76.887 Y149.128 E17.41825
G1 X76.028 Y148.751 E17.44945
G1 X75.205 Y148.3 E17.48066
G1 X74.425 Y147.778 E17.51188
G1 X73.721 Y147.212 E17.54192
G1 X73.019 Y146.537 E17.57431
G1 X72.404 Y145.828 E17.60553
G1 X71.874 Y145.097 E17.63556
G1 X71.374 Y144.261 E17.66796
G1 X70.966 Y143.416 E17.69917
G1 X70.635 Y142.538 E17.73038
G1 X70.383 Y141.634 E17.76159
G1 X70.211 Y140.705 E17.79302
G1 X70.113 Y139.526 E17.83236
G1 X70.1 Y138.908 E17.85292
G1 X70.101 Y81.281 E19.76961
G1 X70.111 Y80.598 E19.79232
G1 X70.166 Y79.661 E19.82354
G1 X70.305 Y78.733 E19.85475
G1 X70.525 Y77.821 E19.88596
G1 X70.825 Y76.931 E19.91719
G1 X71.202 Y76.072 E19.94839
G1 X71.653 Y75.25 E19.97958
G1 X72.176 Y74.47 E20.01081
G1 X72.743 Y73.766 E20.04088
G1 X73.418 Y73.065 E20.07325
G0 F9000 X73.681 Y73.367
G1 F1800 X74.362 Y72.774 E20.10328
G1 X75.094 Y72.244 E20.13334
G1 X75.869 Y71.781 E20.16336
G1 X76.682 Y71.388 E20.1934
G1 X77.527 Y71.068 E20.22345
G1 X78.396 Y70.825 E20.25346
G1 X79.284 Y70.659 E20.28351
G1 X80.423 Y70.563 E20.32153
G1 X81.03 Y70.55 E20.34172
G1 X138.493 Y70.55 E22.25295
G1 X139.337 Y70.561 E22.28102
G1 X140.239 Y70.614 E22.31107
G1 X141.132 Y70.746 E22.3411
G1 X142.01 Y70.957 E22.37113
G1 X142.866 Y71.245 E22.40117
G1 X143.693 Y71.607 E22.4312
G1 X144.485 Y72.042 E22.46125
G1 X145.236 Y72.544 E22.4913
G1 X145.939 Y73.111 E22.52133
G1 X146.589 Y73.738 E22.55137
G1 X147.181 Y74.42 E22.58141
G1 X147.711 Y75.151 E22.61144
G1 X148.173 Y75.927 E22.64148
G1 X148.566 Y76.74 E22.67151
G1 X148.884 Y77.585 E22.70154
G1 X149.127 Y78.455 E22.73159
G1 X149.292 Y79.343 E22.76163
G1 X149.387 Y80.473 E22.79934
G1 X149.4 Y81.08 E22.81954
G1 X149.399 Y138.64 E24.73399
G1 X149.39 Y139.367 E24.75817
G1 X149.339 Y140.269 E24.78822
G1 X149.208 Y141.163 E24.81827
G1 X148.999 Y142.041 E24.84829
G1 X148.713 Y142.898 E24.87834
G1 X148.352 Y143.726 E24.90838
G1 X147.92 Y144.518 E24.93839
G1 X147.419 Y145.27 E24.96844
G1 X146.853 Y145.974 E24.99849
G1 X146.228 Y146.625 E25.0285
G1 X145.547 Y147.219 E25.05856
G1 X144.816 Y147.75 E25.08861
G1 X144.042 Y148.214 E25.11862
G1 X143.229 Y148.608 E25.14867
G1 X142.385 Y148.928 E25.17869
G1 X141.515 Y149.173 E25.20876
G1 X140.628 Y149.339 E25.23877
G1 X139.477 Y149.437 E25.27719
G1 X138.87 Y149.45 E25.29738
G1 X81.275 Y149.449 E27.213
G1 X80.577 Y149.44 E27.23622
G1 X79.676 Y149.389 E27.26624
G1 X78.782 Y149.257 E27.29629
G1 X77.904 Y149.048 E27.32631
G1 X77.047 Y148.761 E27.35637
G1 X76.22 Y148.4 E27.38638
G1 X75.427 Y147.967 E27.41643
G1 X74.676 Y147.466 E27.44646
G1 X73.972 Y146.9 E27.4765
G1 X73.321 Y146.274 E27.50654
G1 X72.728 Y145.593 E27.53658
G1 X72.198 Y144.862 E27.56661
G1 X71.734 Y144.087 E27.59665
G1 X71.34 Y143.274 E27.6267
G1 X71.02 Y142.43 E27.65672
G1 X70.776 Y141.56 E27.68677
G1 X70.61 Y140.672 E27.71682
G1 X70.513 Y139.517 E27.75537
G1 X70.5 Y138.908 E27.77563
G1 X70.501 Y81.286 E29.69215
G1 X70.51 Y80.621 E29.71427
G1 X70.562 Y79.719 E29.74432
G1 X70.694 Y78.826 E29.77434
G1 X70.904 Y77.948 E29.80437
G1 X71.191 Y77.091 E29.83443
G1 X71.553 Y76.264 E29.86445
G1 X71.986 Y75.472 E29.89448
G1 X72.488 Y74.721 E29.92452
G1 X73.055 Y74.017 E29.95459
G1 X73.681 Y73.367 E29.9846
G1 F2400 E26.9846
;MESH:AirQualityStation_Enclosure_Top.stl
G0 F9000 X80.035 Y114.344
G0 X88.291 Y119.268
;TYPE:WALL-INNER
G1 F2400 E29.9846
G1 F1800 X88.606 Y119.164 E29.99563
G1 X88.847 Y119.006 E30.00522
G1 X89.15 Y118.762 E30.01816
G1 X89.424 Y118.347 E30.0347
G1 X89.615 Y117.927 E30.05004
G1 X89.698 Y117.476 E30.0653
G1 X89.73 Y116.903 E30.08438
G1 X89.696 Y116.338 E30.10321
G1 X89.594 Y115.801 E30.12139
G1 X89.415 Y115.458 E30.13426
G1 X89.156 Y115.062 E30.15
G1 X88.756 Y114.729 E30.16731
G1 X88.471 Y114.586 E30.17791
G1 X88.322 Y114.555 E30.18297
G1 X88.319 Y114.666 E30.18667
G1 X88.036 Y115.516 E30.21646
G1 X87.788 Y115.753 E30.22787
G1 X87.566 Y115.823 E30.23562
G1 X87.328 Y115.801 E30.24357
G1 X86.883 Y115.652 E30.25917
G1 X86.518 Y115.498 E30.27235
G1 X86.218 Y115.325 E30.28387
G1 X86.05 Y115.589 E30.29428
G1 X85.912 Y115.911 E30.30593
G1 X85.852 Y116.293 E30.31879
G1 X85.81 Y116.918 E30.33962
G1 X85.824 Y117.253 E30.35078
G1 X85.866 Y117.601 E30.36243
G1 X85.957 Y117.948 E30.37437
G1 X86.063 Y118.247 E30.38492
G1 X86.194 Y118.482 E30.39387
G1 X86.348 Y118.701 E30.40277
G1 X86.532 Y118.878 E30.41126
G1 X86.75 Y119.046 E30.42042
G1 X86.984 Y119.166 E30.42916
G1 X87.229 Y119.259 E30.43788
G1 X87.48 Y119.306 E30.44637
G1 X87.75 Y119.327 E30.45538
G1 X88.291 Y119.268 E30.47348
G0 F9000 X88.376 Y119.661
;TYPE:WALL-OUTER
G1 F1800 X88.782 Y119.528 E30.48769
G1 X89.083 Y119.33 E30.49967
G1 X89.45 Y119.035 E30.51533
G1 X89.769 Y118.551 E30.53461
G1 X89.899 Y118.305 E30.54387
G1 X89.998 Y118.045 E30.55312
G1 X90.061 Y117.781 E30.56215
G1 X90.097 Y117.514 E30.57111
G1 X90.131 Y116.902 E30.5915
G1 X90.094 Y116.298 E30.61162
G1 X90.058 Y116.032 E30.62055
G1 X89.994 Y115.77 E30.62952
G1 X89.897 Y115.515 E30.63859
G1 X89.76 Y115.255 E30.64837
G1 X89.458 Y114.793 E30.66673
G1 X88.977 Y114.392 E30.68756
G1 X88.603 Y114.204 E30.70148
G1 X88.241 Y114.13 E30.71377
G1 X87.668 Y114.067 E30.73294
G1 X87.277 Y114.125 E30.74609
G1 X87.558 Y114.236 E30.75614
G1 X87.798 Y114.309 E30.76448
G1 X87.958 Y114.48 E30.77227
G1 X87.678 Y115.317 E30.80162
G1 X87.522 Y115.442 E30.80827
G1 X87.039 Y115.283 E30.82519
G1 X86.653 Y115.119 E30.83913
G1 X86.114 Y114.796 E30.86003
G1 X85.845 Y115.154 E30.87493
G1 X85.694 Y115.405 E30.88467
G1 X85.577 Y115.675 E30.89446
G1 X85.5 Y115.954 E30.90408
G1 X85.454 Y116.248 E30.91398
G1 X85.409 Y116.913 E30.93615
G1 X85.425 Y117.286 E30.94857
G1 X85.472 Y117.677 E30.96167
G1 X85.575 Y118.066 E30.97505
G1 X85.697 Y118.412 E30.98725
G1 X85.855 Y118.695 E30.99803
G1 X86.043 Y118.962 E31.00889
G1 X86.27 Y119.181 E31.01938
G1 X86.535 Y119.386 E31.03053
G1 X86.821 Y119.532 E31.04121
G1 X87.12 Y119.646 E31.05185
G1 X87.428 Y119.703 E31.06227
G1 X87.756 Y119.729 E31.07321
G1 X88.376 Y119.661 E31.09396
G0 F9000 X88.502 Y118.822
;TYPE:SKIN
G1 F1800 X88.119 Y118.923 E31.10713
G1 X87.752 Y118.964 E31.11941
G1 X87.328 Y118.909 E31.13363
G1 X86.941 Y118.737 E31.14772
G1 X86.627 Y118.468 E31.16147
G1 X86.35 Y118.026 E31.17882
G1 X86.223 Y117.533 E31.19575
G1 X86.183 Y117.21 E31.20658
G1 X86.171 Y116.927 E31.216
G1 X86.21 Y116.33 E31.2359
G1 X86.298 Y115.931 E31.24949
G1 X86.353 Y115.814 E31.25379
G1 X86.774 Y115.997 E31.26906
G1 X87.221 Y116.145 E31.28472
G1 X87.609 Y116.184 E31.29769
G1 X87.96 Y116.069 E31.30997
G1 X88.138 Y115.942 E31.31725
G1 X88.353 Y115.697 E31.32809
G1 X88.573 Y115.046 E31.35094
G1 X88.886 Y115.308 E31.36452
G1 X89.099 Y115.633 E31.37744
G1 X89.266 Y115.999 E31.39082
G1 X89.336 Y116.37 E31.40338
G1 X89.367 Y116.906 E31.42124
G1 X89.337 Y117.445 E31.43919
G1 X89.269 Y117.82 E31.45187
G1 X89.115 Y118.16 E31.46428
G1 X88.88 Y118.517 E31.4785
G1 X88.502 Y118.822 E31.49465
G0 F9000 X88.635 Y119.025
G0 X87.747 Y119.166
G0 X87.274 Y119.104
G0 X86.837 Y118.909
G0 X86.471 Y118.596
G0 X85.984 Y117.661
G0 X86.432 Y117.545
G1 F1800 X87.632 Y118.745 E31.5511
G0 F9000 X88.157 Y118.704
G1 F1800 X86.37 Y116.917 E31.63515
G0 F9000 X86.406 Y116.387
G1 F1800 X88.546 Y118.528 E31.73583
G0 F9000 X88.823 Y118.238
G1 F1800 X86.8 Y116.215 E31.83099
G0 F9000 X87.522 Y116.372
G1 F1800 X89.024 Y117.874 E31.90164
G0 F9000 X89.137 Y117.422
G1 F1800 X87.983 Y116.268 E31.95592
G0 F9000 X88.32 Y116.039
G1 F1800 X89.164 Y116.883 E31.99562
G0 F9000 X89.113 Y116.266
G1 F1800 X88.558 Y115.71 E32.02175
G1 F2400 E29.02175
G0 F9000 X88.126 Y115.565
G0 X88.466 Y114.777
G0 X88.875 Y115.038
G0 X89.842 Y116.076
G0 X100.514 Y116.642
G0 X101.193 Y117.243
G0 X101.192 Y117.796
;TYPE:WALL-INNER
G1 F2400 E32.02175
G1 F1500 X101.538 Y116.872 E32.06113
G1 X100.845 Y116.872 E32.08879
G1 X101.192 Y117.796 E32.12818
G0 F9000 X101.193 Y117.243
G0 X101.196 Y118.394
G0 X101.205 Y119.128
;TYPE:WALL-OUTER
G1 F1800 X101.448 Y118.368 E32.15472
G1 X102.174 Y116.432 E32.22349
G1 X100.209 Y116.432 E32.28885
G1 X101.035 Y118.626 E32.36682
G1 X101.205 Y119.128 E32.38445
G1 F2400 E29.38445
G0 F9000 X101.196 Y118.394
G0 X101.87 Y116.642
G0 X123.98 Y116.802
G0 X124.443 Y117.184
;TYPE:WALL-INNER
G1 F2400 E32.38445
G1 F1972.6 X124.597 Y117.285 E32.39004
G1 F1940.7 X124.987 Y117.357 E32.40227
G1 F1930.3 X125.34 Y117.298 E32.41337
G1 F1951.2 X125.627 Y117.111 E32.42388
G1 X125.731 Y116.975 E32.42913
G1 F1961.9 X124.252 Y116.974 E32.47427
G1 F1972.6 X124.443 Y117.184 E32.48288
G0 F9000 X124.688 Y117.711
;TYPE:WALL-OUTER
G1 F1800 X124.983 Y117.748 E32.49277
G1 X125.236 Y117.721 E32.50123
G1 X125.568 Y117.636 E32.51263
G1 X125.901 Y117.385 E32.5265
G1 X126.07 Y117.163 E32.53578
G1 X126.203 Y116.927 E32.54479
G1 X126.298 Y116.591 E32.55641
G1 X123.718 Y116.591 E32.64222
G1 X123.779 Y116.872 E32.65178
G1 X123.995 Y117.288 E32.66737
G1 X124.206 Y117.486 E32.67699
G1 X124.434 Y117.635 E32.68605
G1 X124.688 Y117.711 E32.69487
G1 F2400 E29.69487
G0 F9000 X124.75 Y117.42
G0 X124.518 Y116.81
G0 X124.518 Y115.213
G0 X124.518 Y114.791
G0 X124.177 Y114.977
;TYPE:WALL-INNER
G1 F2400 E32.69487
G1 F1414.5 X125.751 Y114.978 E32.76149
G1 F1409 X125.578 Y114.71 E32.77504
G1 X125.291 Y114.512 E32.78986
G1 F1398.1 X124.934 Y114.451 E32.80537
G1 F1400.8 X124.679 Y114.48 E32.81634
G1 F1417.3 X124.451 Y114.593 E32.82708
G1 X124.268 Y114.801 E32.83879
G1 X124.177 Y114.977 E32.84716
G1 F2400 E29.84716
G0 F9000 X124.518 Y114.791
G0 X123.811 Y115.222
G0 X122.922 Y115.233
G0 X117.322 Y120.937
G1 F2400 E32.84716
G1 F1800 X117.033 Y120.766 E32.85832
G1 X116.856 Y120.551 E32.86759
G1 X116.796 Y120.323 E32.87543
G1 X116.796 Y119.185 E32.91328
G1 X116.341 Y119.185 E32.92841
G1 X116.131 Y119.082 E32.93619
G1 X116.03 Y118.908 E32.94288
G1 X115.929 Y119.082 E32.94957
G1 X115.626 Y119.184 E32.96021
G1 X114.615 Y119.183 E32.99383
G1 X114.307 Y119.064 E33.00482
G1 X114.168 Y118.917 E33.01155
G1 X114.07 Y118.638 E33.02138
G1 X114.069 Y115.18 E33.13639
G1 X114.024 Y114.749 E33.15081
G1 X113.884 Y114.521 E33.15971
G1 X113.742 Y114.453 E33.16494
G1 X113.551 Y114.428 E33.17135
G1 X113.304 Y114.461 E33.17964
G1 X113.084 Y114.555 E33.1876
G1 X112.923 Y114.684 E33.19446
G1 X112.813 Y114.86 E33.20136
G1 X112.713 Y115.289 E33.21601
G1 X112.706 Y118.638 E33.3274
G1 X112.608 Y118.917 E33.33723
G1 X112.469 Y119.064 E33.34396
G1 X112.231 Y119.185 E33.35284
G1 X111.103 Y119.18 E33.39036
G1 X110.923 Y119.125 E33.39662
G1 X110.767 Y119.016 E33.40295
G1 F1387.3 X110.469 Y118.647 E33.42342
G1 X110.172 Y119.016 E33.44386
G1 F1800 X110.016 Y119.125 E33.45019
G1 X109.795 Y119.184 E33.4578
G1 X108.802 Y119.185 E33.49083
G1 X108.583 Y119.073 E33.49901
G1 X108.221 Y119.244 E33.51232
G1 X107.758 Y119.311 E33.52788
